X:1
T:Nightfall in Winter
T:Nightfall in Winter
T:Copyright © CPDL
T:Copyright © CPDL
T:Copyright © CPDL
T:Copyright © CPDL
T:Copyright © CPDL
T:Copyright © CPDL
Z:Copyright © CPDL
%%score 1 ( 2 3 ) ( 4 5 )
L:1/8
Q:1/4=60
M:4/4
K:Emin
V:1 treble nm="P1"
V:2 treble nm="P2"
V:3 treble 
V:4 treble nm="P3"
V:5 treble 
V:1
"^Editor: John Henry Fowler""^(  Revision:   4 - 3 - 2008  )""^Slow""^From \"English Lyrics\" -  Set 8 -  Number 2""^Words by Langdon Elwyn Mitchell" z8 | %1
w: |
 z8 |"^Charles Hubert Hastings Parry"!pp! z2"^( 1848 - 1918 )" G4 F>G | B4 z2 E2 | %4
w: |Cold is the|air, The|
 G2!<(! F2 A3!<)! G | c4 z2 F2 | A4 G2 F>G | E4 z4 | z4 z2!<(! c2!<)! | [Be]3!>(! [DG]!>)! G4- | %10
w: woods are bare And|brown; the|herd Stand in the|yard.|The|frost doth fall;|
 GG A>G c4- | c3 G A2 c2 | G6 z2 | z2 z C E2 C2 | E3 E G2!<)!!<(! A2 | c6 z2 | D2 E>D A4- | %17
w: _ And round the hill|_ The hares move|slow;|The home- ward|crow, A- lone and|high,|Cros- ses the sky|
 A2 D2 D>E D2 | z2 z D D2!<)!!<(! D2 | _E8 | z D=EG D3 E | F8 | z!pp! FDE F3 F | F4 z2 z B | %24
w: _ All si- lent- ly.|The quick streams|freeze;|The mov- ing trees Are|still;|for now No breeze will|blow; The|
 B3 B B2 B>B | B2 F4 B2 ||[K:Ebmin]"^a tempo"!<(! B3 G!<)! c4 | B2 G4 F2 | E8 | z EFE G2 B>e | %30
w: wind has gone With the|day, down, And|clouds are come|Bear- ing the|gloom.|The yel- low grass, In the|
 e2 c2- cAGF | B2 E2 (c d2) c | E4 z4 |!p! z EFG B3 B | c>d c4 c2 | G3 G G4 | z c d>c E2 =F>G | %37
w: clear glass _ Of the bright|pool Grows soft _ and|dull.|The wa- ter's eye That|held the sky Now|gaz- es quite;|And now the light On the|
 A2 B2 G2 E2 | z A c>B dG G2 |"^allargando" z A c>B cG G>__E ||[K:Emin] __A6 z2 | z8 | z8 | z8 | %44
w: cold hill Fad- eth,|un- til The gi- ant mass|Doth seem to pass From near to|far;||||
 z8 | z8 |!p! z2 ^G2 B3 B | E3 E F3 F | ^G4 z4 | z4 z2 ^G2 | !fermata!c3 C C4 | z8 | z8 | %53
w: ||The clouds ob-|scure The sky with|gloom.|The|night is come,|||
 z2 E2 G4- |!<(! G4!<)! A4 |!>(! B8-!>)! | B6 z2 |] %57
w: The night|_ is|come.|_|
V:2
 !>!B4 !>!B4 | !>![GB]4 !>![GB]4 | !>![EGe]4 !>![EGe]4 | !>![EGe]4 !>![EGe]4 | [EGe]4 [EGe]4 | %5
w: |||||
 !>![EFe]4 !>![EFe]4 | !>![EAc]4 !>![^DGB]4 | (B2 ^A>B) e4 | (B2 ^A>B) e4 | %9
w: ||||
 (e2 ^d)e/ ([Gg]2 [Aa])z[Gg]/ | ([Gce]2 [F^d]>[Ge]) (g2 a>g) | (=f2 [ce]>f [=FAd]2 c>d | %12
w: ||tranquillo * * * * *|
 [D=FB]2 A>B G2 F>G) | !>!E4 !>!E4 | !>!E4 !>!E4 | E4 E4 | (A,2 C) z (A,2 C) z | %17
w: |||||
 (A,2 C) z (A,2 C) z | (3(B,A,G, (3F,G,A,) (3(G,F,E,)!<(! (3(B,A,G,)!<)! | %19
w: ||
 (3(!>!CB,A,)!>(! (3(!>!B,A,G,) (3(!>!A,G,!>)!F,) (3(!>!CB,A,) | D4 !>!D4 | (F2 ^G>)A A2 ^A^c | %22
w: |||
 (A2 ^G>)A A2 ^A^c | (F!<(!^G^AB) (^c2 d)!<)!f | (^c2 df) (c2 df) | (^e2 f2) f4 || %26
w: ||||
[K:Ebmin] [Begb]2 [B,GB]4 [G,FA]2 | !>![G,EG]4 !>![A,B,=D]4 | (E2 =D)z/E/ ([B,E]2 B,)z/_D/ | %29
w: |||
 (!>![G,D]2 C)z/G,/ (!>![G,D]2 C)z/G,/ | (A,2 =G,)z/A,/ (C2 B,)z/A,/ | %31
w: ||
 [E,G,E]3 E, ([F,A,]2 [E,G,][F,A,]) | B,2[K:treble] E2- (E F2 E) | B,2[K:bass] G,2- G,(G,A,B,) | %34
w: |||
 [CE]6 [CE]2 | (G,4 G,)(CDE) | [Ec]4 (E2 =D>)E | A4 (G2 F>)G | [Ec]4 ([ce]2 [=D=d]>[Ee]) | %39
w: |||||
 [Aca]4 ([cgc']2 [Bb]>)[cc'] ||[K:Emin] !>![ege']4 !>![ege']4 | !>![ege']4 !>![ege']4 | %42
w: |||
 !>![^d^f^d']4 !>![=d=f=d']4 | !>![^ce^c']4 !>![=ce=c']4 | !>![^dab]4 !>![^DAB]4 | %45
w: |||
 !>![^D,A,B,]4 !>![D,A,B,]4 | !>![=D,^G,B,]4 ([D,G,B,]2 [B,,G,]>[D,B,]) | %47
w: ||
 [^C,G,^A,]4 ([=C,E,=A,]2 [A,,F,]>[C,A,]) | [E,^G,]4 (F,2 ^D,>F,) | [B,,E,]4 (=D,2 B,,>D,) | %50
w: |||
 !fermata![=G,,=C,]8 | !>!E4 !>!E4 | [CE]3 z z4 | (E8 | D4 C4) | B,6 z B, | ([^D,F,B,]4 E,2) z2 |] %57
w: |||||||
V:3
 x8 | x8 | x8 | x8 | x8 | x8 | x4 x4 | G4 (B2 =A>F) | G4 (B2 =A>F) | G4 B4 | x4 [ce]2 [Be]2 | %11
 [Ac]2 G2 x2 [EG]2 | x2 [CE]2 [B,D]2 [A,C]2 | ([G,C]2 [^F,A,]2) ([G,C]2 [F,A,]2) | %14
 ([G,C]2 [F,A,]2) ([G,C]2 [F,A,]2) | ([G,C]2 [F,A,]2) ([G,C]2 [E,A,]2) | [F,D]4 [F,D]4 | %17
 !>![F,D]4 [F,D]4 | !>!D4 D4 | _E8 | (B,A,G,F,) (C2 B,G,) | [F,B,D]2 [B,F]2 [DF]2 [^CE]2 | %22
 [B,DF]2 [B,F]2 [DF]2 [^CE]2 | [B,D]2 [DF]2 [EB]2 [FB]2 | [EB]2 [FB]2 [EB]2 [FB]2 | %25
 [Gd]2 [Fd]2 ([^Gd^g]2 [A^da]2) ||[K:Ebmin] x8 | x8 | [G,B,]4 G,4 | E,4 E,4 | [E,F,]4 [E,F,]4 | %31
 x8 | G,2[K:treble] ([G,B,]2 [A,C]2 [F,A,]2) | G,2[K:bass] E,2- E,E,F,G, | (G,3 =G,) A,4 | %35
 [B,,D,]2 [C,E,][D,_F,] [C,E,]2 z2 | C4 C4 | C4 C4 | C4 E2 x2 | x8 ||[K:Emin] x8 | x8 | x8 | x8 | %44
 x8 | x8 | x8 | x8 | B,,4 [A,,B,,]4 | ^G,,4 [G,,B,,]4 | x8 | x8 | x8 | x8 | x8 | %55
 ([^D,F,]4 [E,G,]2) x [D,F,] | x8 |] %57
V:4
!pp! (G2 F)z/G/ (G2 ^D)z/F/ | (F2 E)z/^D/ (F2 E)z/C/ | (B,2 ^A,)z/B,/ C2 Dz/C/ | %3
 B,2 ^A,z/B,/ (A,2 B,)z/G,/ | ((C2 B,))z/C/ (B,2 ^A,)z/B,/ | ((=A,2 ^G,))z/A,/ (C2 B,)z/C/ | %6
 ((F,2 ^E,))z/F,/ (B,2 ^A,)z/B,/ | z2 (!>!E2 D2 C>A,) | z2 (!>!E2 D2 C>A,) | ([E,B,]4 [D,G,=F]4) | %10
 [C,G,]4 (3(C,,G,,C,, (3G,,C,,G,,) | (3(C,,G,,C,, (3G,,C,,G,, (3C,,G,,C,, (3G,,C,,G,, | %12
 (3C,,G,,C,, (3G,,C,,G,, (3C,,G,,C,, (3G,,C,,G,, | %13
 (3C,,G,,C,, (3G,,C,,G,, (3C,,G,,C,, (3G,,C,,G,, | %14
 (3C,,G,,C,, (3G,,C,,G,, (3C,,G,,C,, (3G,,C,,G,, | %15
 (3C,,G,,C,, (3G,,C,,G,, (3C,,G,,C,, (3G,,C,,G,,) |!p! (C,,2 A,,,) z (C,,2 A,,,) z | %17
 (C,,2 A,,,) z (C,,2 A,,,) z | !>![G,,,D,,]4 !>![G,,,D,,]4 | !>![G,,,D,,]4 !>![G,,,D,,]4 | %20
 !>![G,,,D,,]4 !>![G,,,D,,]4 | (3(B,,,F,,B,,!<(! (3D,^C,B,,)!<)! x4 | %22
!p! (3(B,,,F,,B,, (3D,^C,B,,) x4 | (3(B,,,F,,B,, (3D,^C,B,,)!p! B,4 | B,4 B,4 | %25
"^dim. e poco rit." [B,D]4 B,,,4 ||[K:Ebmin]!pp!"^a tempo" (B,,,3 G,,,) C,,4 | %27
 (B,,,2 G,,,4 F,,,2) | !>!E,,,4 !>!E,,,4 | !>!E,,,4 !>!E,,,4 | !>!E,,,4 !>!E,,,4 | %31
 !>!E,,,4 !>!E,,,4 | !>!E,,,4 !>!E,,,4 | !>!E,,,4 !>!E,,,4 | !>!E,,,4 !>!_F,,,4 | G,,,4 C,,4 | %36
 (A,2 =G,)z/A,/ _G,4 | (_F,2 E,)z/F,/ E,4 | (A,,2 =G,,>A,,) _G,,4 | (_F,,2 E,,>F,,) __E,,4 || %40
[K:Emin]!pp! (C,,2 G,,)z/G,,/ (C,2 G,)z/G,/ | (C2 G)z/G/ (c2 ^A)z/A/ | (B2 ^A)z/A/ (B2 ^G)z/G/ | %43
 (A2 ^G)z/G/ (A2 F)z/F/ | (B2 F)z/F/[K:bass] (B,2 F,)z/F,/ | %45
 (B,,2 F,,)z/F,,/ (B,,,2 ^A,,,)z/B,,,/ | (E,,2 ^D,,)z/E,,/ E,,,4 | (E,,2 ^D,,>)E,, E,,,4 | %48
 (E,,2 ^D,,>)E,, E,,,4 | (E,,2 ^D,,>)E,, E,,,4 | .!fermata!E,,8 | C2 B,z/C/ !>!C2 ^G,z/B,/ | %52
 (!>!B,2 A,) z z4 | ([E,,E,]8 | [D,,D,]4 [C,,C,]4) | ([B,,,B,,]4 [G,,,G,,]2) z [B,,,B,,] | %56
 ([B,,,B,,]4 [E,,,E,,]2) z2 |] %57
V:5
 x8 | x8 | x8 | x8 | x8 | x8 | x8 | !>!E,8 | !>!E,8 | x8 | x8 | x8 | x8 | x8 | x8 | x8 | x8 | x8 | %18
 x8 | x8 | x8 | B,,,2 x2 F,4 | B,,,2 x2 F,4 | B,,,2 x2 (G,2 F,2) | (G,2 F,2) (G,2 F,2) | x8 || %26
[K:Ebmin] x8 | x8 | x8 | x8 | x8 | x8 | x8 | x8 | x8 | x8 | x8 | x8 | x8 | x8 ||[K:Emin] x8 | x8 | %42
 x8 | x8 | x4[K:bass] x4 | x8 | x8 | x8 | x8 | x8 | x8 | x8 | x8 | x8 | x8 | x8 | x8 |] %57

